X:51
T: ICH HAB' DIE NACHT GETRAEUMET
N: Z0052
O: Europa, Mitteleuropa, Deutschland
R: Sagen - Lied, Romanze, Tod
M: 6/8
L: 1/16
K: G
D2 | G4A2_B2A2G2 | d6d4
c2 | _B3AG2F4G2 | A4z6
G2 | d4d2_B4G2 | g6_e4
c2 | _B3AG2A3GF2 | G4z6

